Numix-uTouch/48x48/apps/system-lock-screen.svg

<?xml version="1.0" encoding="UTF-8" standalone="no"?>
<svg
   xmlns:dc="http://purl.org/dc/elements/1.1/"
   xmlns:cc="http://creativecommons.org/ns#"
   xmlns:rdf="http://www.w3.org/1999/02/22-rdf-syntax-ns#"
   xmlns:svg="http://www.w3.org/2000/svg"
   xmlns="http://www.w3.org/2000/svg"
   xmlns:xlink="http://www.w3.org/1999/xlink"
   xmlns:sodipodi="http://sodipodi.sourceforge.net/DTD/sodipodi-0.dtd"
   xmlns:inkscape="http://www.inkscape.org/namespaces/inkscape"
   width="48"
   height="48"
   id="svg2"
   version="1.1"
   inkscape:version="0.48.4 r9939"
   sodipodi:docname="system-lock-screen.svg">
  <metadata
     id="metadata110">
    <rdf:RDF>
      <cc:Work
         rdf:about="">
        <dc:format>image/svg+xml</dc:format>
        <dc:type
           rdf:resource="http://purl.org/dc/dcmitype/StillImage" />
      </cc:Work>
    </rdf:RDF>
  </metadata>
  <sodipodi:namedview
     pagecolor="#ffffff"
     bordercolor="#666666"
     borderopacity="1"
     objecttolerance="10"
     gridtolerance="10"
     guidetolerance="10"
     inkscape:pageopacity="0"
     inkscape:pageshadow="2"
     inkscape:window-width="672"
     inkscape:window-height="480"
     id="namedview108"
     showgrid="false"
     inkscape:zoom="9.8333333"
     inkscape:cx="54.257099"
     inkscape:cy="26.953812"
     inkscape:window-x="260"
     inkscape:window-y="191"
     inkscape:window-maximized="0"
     inkscape:current-layer="svg2" />
  <defs
     id="defs4">
    <clipPath
       id="clipPath6">
      <rect
         width="42"
         x="307"
         y="223"
         rx="9"
         height="42"
         transform="rotate(90)"
         fill="url(#3)"
         color="#bebebe"
         id="rect8" />
    </clipPath>
    <clipPath
       id="clipPath10">
      <rect
         width="240"
         x="24"
         y="36"
         rx="50"
         height="240"
         fill="#986767"
         color="#bebebe"
         id="rect12" />
    </clipPath>
    <clipPath
       id="clipPath14">
      <rect
         width="16"
         x="432"
         y="116"
         rx="2"
         height="16"
         opacity="0.2"
         fill="#6d6d6d"
         color="#bebebe"
         id="rect16" />
    </clipPath>
    <clipPath
       id="clipPath18">
      <path
         d="m 98.03125,23.191212 c -41.492132,1.05238 -74.84375,35.06824 -74.84375,76.812498 0,42.40687 34.405632,76.8125 76.8125,76.8125 42.40687,0 76.8125,-34.40563 76.8125,-76.8125 0,-42.406866 -34.40563,-76.812498 -76.8125,-76.812498 -0.662607,0 -1.310145,-0.0167 -1.96875,0 z M 100,50.659962 c 27.24464,0 49.34375,22.099114 49.34375,49.343748 -1e-5,27.24464 -22.09911,49.34375 -49.34375,49.34375 -27.244636,-1e-5 -49.34375,-22.09911 -49.34375,-49.34375 0,-27.244634 22.099114,-49.343748 49.34375,-49.343748 z"
         id="path20" />
    </clipPath>
    <clipPath
       id="clipPath22">
      <path
         d="m 152,204 a 8,8 0 1 1 -16,0 8,8 0 1 1 16,0 z"
         id="path24" />
    </clipPath>
    <clipPath
       id="clipPath26">
      <path
         d="m 145,215 c 33.13708,0 60,-26.86292 60,-60 0,-33.13708 -26.86292,-60 -60,-60 -33.13708,0 -60,26.86292 -60,60 0,12.50698 3.8285,24.10633 10.375,33.71875 L 89,211 111.28125,204.625 C 120.89367,211.1715 132.49302,215 145,215 z"
         id="path28" />
    </clipPath>
    <clipPath
       id="clipPath30">
      <rect
         width="16"
         x="432"
         y="116"
         rx="3"
         height="16"
         color="#bebebe"
         id="rect32" />
    </clipPath>
    <clipPath
       id="clipPath34">
      <path
         d="m 144,70 c -49.705627,0 -90,40.29437 -90,90 0,49.70563 40.294373,90 90,90 49.70563,0 90,-40.29437 90,-90 0,-49.70563 -40.29437,-90 -90,-90 z m 0,32.1875 c 32.03251,0 58,25.96748 58,58 0,32.03252 -25.96749,58 -58,58 -32.03251,0 -58,-25.96748 -58,-58 0,-32.03252 25.96749,-58 58,-58 z"
         id="path36" />
    </clipPath>
    <clipPath
       id="clipPath38">
      <rect
         width="22"
         x="433"
         y="77"
         rx="3"
         height="22"
         opacity="0.2"
         fill="#6d6d6d"
         color="#bebebe"
         id="rect40" />
    </clipPath>
    <clipPath
       id="clipPath42">
      <rect
         width="30"
         x="433"
         y="29"
         rx="4"
         height="30"
         opacity="0.2"
         fill="#6d6d6d"
         color="#bebebe"
         id="rect44" />
    </clipPath>
    <clipPath
       id="clipPath46">
      <rect
         width="90"
         x="307"
         y="31"
         rx="18.75"
         height="90"
         fill="url(#1)"
         color="#bebebe"
         id="rect48" />
    </clipPath>
    <clipPath
       id="clipPath50">
      <rect
         width="60"
         x="306"
         y="142"
         rx="12.5"
         height="60"
         transform="matrix(0 -1 1 0 0 0)"
         fill="url(#0)"
         color="#bebebe"
         id="rect52" />
    </clipPath>
    <clipPath
       id="clipPath54">
      <rect
         width="30"
         x="433"
         y="29"
         rx="6"
         height="30"
         color="#bebebe"
         id="rect56" />
    </clipPath>
    <clipPath
       id="clipPath58">
      <rect
         width="22"
         x="433"
         y="77"
         rx="5"
         height="22"
         color="#bebebe"
         id="rect60" />
    </clipPath>
    <clipPath
       id="clipPath62">
      <rect
         width="22"
         x="433"
         y="77"
         rx="4"
         height="22"
         color="#bebebe"
         id="rect64" />
    </clipPath>
    <clipPath
       id="clipPath66">
      <rect
         width="20"
         x="434"
         y="78"
         rx="4"
         height="20"
         color="#bebebe"
         id="rect68" />
    </clipPath>
    <linearGradient
       gradientTransform="matrix(-1 0 0 -1 289 315)"
       xlink:href="#2"
       y1="40"
       y2="276"
       x1="265"
       x2="264"
       gradientUnits="userSpaceOnUse"
       id="linearGradient70" />
    <linearGradient
       gradientTransform="matrix(.25 0 0 .25 299.99999 131.99999)"
       id="0"
       xlink:href="#2"
       y1="230"
       y2="90"
       x2="0"
       gradientUnits="userSpaceOnUse" />
    <linearGradient
       gradientTransform="matrix(.375 0 0 .375 298 16)"
       id="1"
       xlink:href="#2"
       y1="230"
       y2="90"
       x2="0"
       gradientUnits="userSpaceOnUse" />
    <linearGradient
       id="2">
      <stop
         stop-color="#151515"
         id="stop75" />
      <stop
         offset="1"
         stop-color="#222"
         id="stop77" />
    </linearGradient>
    <linearGradient
       gradientTransform="matrix(.175 0 0 .175 302.79999 215.99997)"
       id="3"
       xlink:href="#2"
       y1="280"
       y2="40"
       x2="0"
       gradientUnits="userSpaceOnUse" />
    <linearGradient
       id="4">
      <stop
         stop-color="#242424"
         id="stop81" />
      <stop
         offset="1"
         stop-color="#343434"
         id="stop83" />
    </linearGradient>
    <linearGradient
       xlink:href="#4"
       id="5"
       y1="1050.36"
       x2="0"
       y2="1006.36"
       gradientUnits="userSpaceOnUse" />
    <radialGradient
       r="128"
       cy="160"
       cx="148.004"
       spreadMethod="pad"
       gradientTransform="matrix(0.1831,0,0,0.1831,-3.1007903,-5.296396)"
       gradientUnits="userSpaceOnUse"
       id="radialGradient3053"
       xlink:href="#linearGradient4460"
       inkscape:collect="always" />
    <linearGradient
       id="linearGradient4460">
      <stop
         offset="0"
         style="stop-color:#747474;stop-opacity:1;"
         id="stop8-6" />
      <stop
         offset="1"
         style="stop-color:#2d2d2d;stop-opacity:1;"
         id="stop10-2" />
    </linearGradient>
    <radialGradient
       r="128"
       cy="160"
       cx="148.004"
       spreadMethod="pad"
       gradientTransform="matrix(0.1831,0,0,0.1831,-3.10079,-5.296396)"
       gradientUnits="userSpaceOnUse"
       id="radialGradient3049"
       xlink:href="#linearGradient4460"
       inkscape:collect="always" />
    <linearGradient
       inkscape:collect="always"
       xlink:href="#4"
       id="linearGradient3106"
       gradientUnits="userSpaceOnUse"
       y1="1050.36"
       x2="0"
       y2="1006.36" />
    <linearGradient
       inkscape:collect="always"
       xlink:href="#4"
       id="linearGradient3111"
       gradientUnits="userSpaceOnUse"
       y1="1050.36"
       x2="0"
       y2="1006.36"
       gradientTransform="translate(0,-1004.3622)" />
  </defs>
  <path
     inkscape:connector-curvature="0"
     style="fill:url(#radialGradient3049);fill-opacity:1"
     d="m 47.437,11.547358 0,24.906249 c 0,10.25 0,10.984376 -10.984375,10.984376 l -24.902345,0 C 0.562,47.437983 0.562,46.703607 0.562,36.453607 l 0,-24.906249 c 0,-10.25 0,-10.984375 10.98828,-10.984375 l 24.902345,0 C 47.437,0.562983 47.437,1.297358 47.437,11.547358 z"
     id="path11" />
  <path
     inkscape:connector-curvature="0"
     id="path15"
     d="m 38.265125,47.437983 c 2.542968,-0.01169 4.378908,-0.08203 5.710936,-0.441408 l -4.230467,-7.249999 -4.484376,7.691407 1.191407,0 c 0.640626,0 1.242187,0 1.8125,0 z m 1.480469,-7.691407 -5.125001,-8.789062 -5.128906,8.789062 z m 0,0 7.652345,0 c 0.03118,-0.972656 0.03905,-2.062499 0.03905,-3.296874 l 0,-1.097657 -2.562495,-4.394531 z m 5.128908,-8.789062 -5.128908,-8.789062 -5.125001,8.789062 z m 0,0 2.562498,0 0,-4.394531 z m -10.253909,0 -5.128906,-8.789062 -5.125,8.789062 z m -10.253906,0 -5.128907,8.789062 10.253907,0 z m 0,0 -5.128907,-8.789062 -5.125,8.789062 z m -10.253907,0 -5.128906,8.789062 10.253906,0 z m 0,0 -5.128906,-8.789062 -5.125,8.789062 z m -10.253906,0 L 0.562,36.605951 c 0,1.16797 0.01169,2.210939 0.03905,3.140625 l 8.382814,0 z m 0,0 -3.296874,-5.648437 0,5.648437 z m 5.125,8.789062 -4.312498,7.394531 C 6.26903,47.434067 8.479969,47.438 11.55028,47.438 l 1.921875,0 z m 0,-17.578124 -5.125,-8.789063 -3.296874,5.648438 0,3.140625 z m 0,0 10.253906,0 -5.125,-8.789063 z m 5.128906,-8.789063 -5.128906,-8.789062 -5.125,8.789062 z m 0,0 10.253907,0 -5.128907,-8.789062 z m 5.125,-8.789062 -2.351562,-4.027344 -5.335938,0 c -0.07813,0 -0.140627,0 -0.214845,0 L 8.983874,4.590327 z m 0,0 10.253907,0 -2.351563,-4.027344 -5.550781,0 z m 10.253907,0 10.253907,0 -2.351562,-4.027344 c -0.31252,0 -0.609375,0 -0.941407,0 l -4.609376,0 z m 0,0 -5.125,8.789062 10.253906,0 z m 5.128906,8.789062 10.253909,0 -5.128908,-8.789062 z m 0,0 -5.128906,8.789063 10.253907,0 z m 5.125001,8.789063 7.691406,0 0,-4.394531 -2.562498,-4.394532 z m 5.128908,-8.789063 2.562498,0 0,-1.832031 c 0,-0.914063 -0.0078,-1.7499996 -0.02338,-2.5234369 z m -15.382815,8.789063 -5.125,-8.789063 -5.128907,8.789063 z m 10.253907,-17.578125 7.308595,0 C 46.499502,1.832514 45.16747,0.961421 42.022937,0.687983 z m -30.76172,0 L 6.679187,0.637202 C 3.019029,0.844234 1.538561,1.633295 0.944812,4.590327 z m -5.125,8.789062 -3.238281,-5.5546872 c -0.04298,1.074219 -0.05857,2.3085932 -0.05857,3.7226562 l 0,1.832031 z m 15.378906,26.367187 -4.484375,7.691407 8.972656,0 z m 10.253907,0 -4.484376,7.691407 8.972657,0 z M 2.593251,46.36767 0.991687,43.621575 c 0.29296,1.316406 0.785158,2.17969 1.601564,2.746095 z"
     style="fill:#ffffff;fill-opacity:0.05100002" />
  <path
     style="color:#000000;fill:#f9f9f9;fill-opacity:1"
     d="M 12.8125 12 C 12.373348 12.047 11.997639 12.46435 12 12.90625 L 12 28 C 12.000046 28.4715 12.528773 28.9999 13 29 L 22 29 L 22 33 L 15 33 L 15 36 L 33 36 L 33 33 L 26 33 L 26 29 L 35 29 C 35.471226 28.9999 35.999954 28.4719 36 28 L 36 12.90625 C 35.999954 12.43475 35.564976 12.0001 35.09375 12 L 12.90625 12 L 12.8125 12 z M 24 14 C 24 14 29 14.0014 29 16.5 L 29 19 C 29 19 30 19.3977 30 20 L 30 26 C 29.999943 26.505 29.560986 26.9999 29 27 L 19 27 C 18.439021 26.9999 18.00005 26.5051 18 26 L 18 20 C 18 19.3981 19 19 19 19 L 19 16.5 C 19 13.9997 24.000004 14 24 14 z M 24 15.625 C 22.5 15.625 21 16.25 21 17.5 L 21 19 L 27 19 L 27 17.5 C 27 16.25 25.5 15.625 24 15.625 z "
     id="path104" />
</svg>

<svg xmlns="http://www.w3.org/2000/svg" viewBox="0 0 48 48"><defs><radialGradient id="0" cx="24" cy="24" r="23.437" gradientUnits="userSpaceOnUse"><stop stop-color="#616161"/><stop offset="1" stop-color="#414141"/></radialGradient></defs><path d="m 47.44 11.547 l 0 24.906 c 0 10.25 0 10.984 -10.984 10.984 l -24.902 0 c -10.988 0 -10.988 -0.734 -10.988 -10.984 l 0 -24.906 c 0 -10.25 0 -10.984 10.988 -10.984 l 24.902 0 c 10.984 0 10.984 0.734 10.984 10.984" fill="url(#0)"/><path d="m 12.813 12 c -0.438 0.047 -0.816 0.465 -0.813 0.906 l 0 15.09 c 0 0.473 0.527 1 1 1 l 9 0 l 0 4 l -7 0 l 0 3 l 18 0 l 0 -3 l -7 0 l 0 -4 l 9 0 c 0.473 0 1 -0.527 1 -1 l 0 -15.09 c 0 -0.473 -0.438 -0.906 -0.906 -0.906 m -11.09 2 c 0 0 5 0 5 2.5 l 0 2.5 c 0 0 1 0.398 1 1 l 0 6 c 0 0.504 -0.438 1 -1 1 l -10 0 c -0.563 0 -1 -0.496 -1 -1 l 0 -6 c 0 -0.602 1 -1 1 -1 l 0 -2.5 c 0 -2.5 5 -2.5 5 -2.5 m 0 1.625 c -1.5 0 -3 0.625 -3 1.875 l 0 1.5 l 6 0 l 0 -1.5 c 0 -1.25 -1.5 -1.875 -3 -1.875 m 0 0" fill="#fff"/><path d="m 38.27 47.44 c 2.543 -0.012 4.379 -0.082 5.711 -0.441 l -4.23 -7.25 -4.484 7.691 1.191 0 c 0.641 0 1.242 0 1.813 0 z m 1.48 -7.691 -5.125 -8.789 -5.129 8.789 z m 0 0 7.652 0 c 0.031 -0.973 0.039 -2.063 0.039 -3.297 l 0 -1.098 -2.563 -4.395 z m 5.129 -8.789 -5.129 -8.789 -5.125 8.789 z m 0 0 2.563 0 0 -4.395 z m -10.254 0 -5.129 -8.789 -5.125 8.789 z m -10.254 0 -5.129 8.789 10.254 0 z m 0 0 -5.129 -8.789 -5.125 8.789 z m -10.254 0 -5.129 8.789 10.254 0 z m 0 0 -5.129 -8.789 -5.125 8.789 z m -10.254 0 -3.297 5.648 c 0 1.168 0.012 2.211 0.039 3.141 l 8.383 0 z m 0 0 -3.297 -5.648 0 5.648 z m 5.125 8.789 -4.313 7.395 c 1.598 0.293 3.809 0.297 6.879 0.297 l 1.922 0 z m 0 -17.578 -5.125 -8.789 -3.297 5.648 0 3.141 z m 0 0 10.254 0 -5.125 -8.789 z m 5.129 -8.789 -5.129 -8.789 -5.125 8.789 z m 0 0 10.254 0 -5.129 -8.789 z m 5.125 -8.789 -2.352 -4.03 -5.336 0 c -0.078 0 -0.141 0 -0.215 0 l -2.352 4.03 z m 0 0 10.254 0 -2.352 -4.03 -5.551 0 z m 10.254 0 10.254 0 l -2.352 -4.03 c -0.313 0 -0.609 0 -0.941 0 l -4.609 0 z m 0 0 -5.125 8.789 10.254 0 z m 5.129 8.789 10.254 0 -5.129 -8.789 z m 0 0 -5.129 8.789 10.254 0 z m 5.125 8.789 7.691 0 0 -4.395 -2.563 -4.395 z m 5.129 -8.789 2.563 0 0 -1.832 c 0 -0.914 -0.008 -1.75 -0.023 -2.523 z m -15.383 8.789 -5.125 -8.789 -5.129 8.789 z m 10.254 -17.578 7.309 0 c -0.555 -2.758 -1.887 -3.629 -5.03 -3.902 z m -30.762 0 l -2.305 -3.953 c -3.66 0.207 -5.141 0.996 -5.734 3.953 z m -5.125 8.789 l -3.238 -5.555 c -0.043 1.074 -0.059 2.309 -0.059 3.723 l 0 1.832 z m 15.379 26.367 -4.484 7.691 8.973 0 z m 10.254 0 -4.484 7.691 8.973 0 z m -26.898 6.621 -1.602 -2.746 c 0.293 1.316 0.785 2.18 1.602 2.746 z" fill="#fff" fill-opacity="0.048"/></svg>
